cyberpunk.cube
TITLE "cyberpunk"
LUT_3D_SIZE 9
DOMAIN_MIN 0.0 0.0 0.0
DOMAIN_MAX 1.0 1.0 1.0
0.000000 0.092449 0.126199
0.078918 0.087101 0.120766
0.262464 0.074509 0.107482
0.446173 0.060219 0.091881
0.630018 0.044485 0.074307
0.813977 0.027560 0.055108
0.998026 0.009696 0.034628
1.000000 0.000000 0.013214
1.000000 0.000000 0.003312
0.000000 0.165546 0.105568
0.062079 0.158806 0.098236
0.245874 0.143607 0.081393
0.429792 0.127117 0.062788
0.613808 0.109591 0.042768
0.797899 0.091280 0.021678
0.982040 0.072440 0.000000
1.000000 0.053323 0.000000
1.000000 0.044588 0.000000
0.000000 0.305699 0.045115
0.027983 0.297064 0.035196
0.212095 0.278532 0.013802
0.396249 0.259561 0.000000
0.580420 0.240406 0.000000
0.764585 0.221319 0.000000
0.948719 0.202555 0.000000
1.000000 0.184365 0.000000
1.000000 0.176111 0.000000
0.000000 0.436657 0.000000
0.000000 0.427498 0.000000
0.178788 0.408500 0.000000
0.362905 0.389915 0.000000
0.546958 0.371998 0.000000
0.730924 0.355002 0.000000
0.914778 0.339180 0.000000
1.000000 0.324785 0.000000
1.000000 0.318491 0.000000
0.000000 0.568065 0.000000
0.000000 0.559753 0.000000
0.145034 0.543155 0.000000
0.328841 0.527823 0.000000
0.512504 0.514011 0.000000
0.695998 0.501972 0.000000
0.880956 0.491361 0.000000
1.000000 0.481106 0.000000
1.000000 0.477022 0.000000
0.000000 0.709566 0.000000
0.000000 0.703472 0.000000
0.110001 0.692113 0.000000
0.296551 0.681654 0.000000
0.487297 0.671508 0.000000
0.681639 0.661629 0.000000
0.878978 0.651975 0.000000
1.000000 0.642498 0.000000
1.000000 0.641718 0.000000
0.000000 0.866714 0.000000
0.000000 0.861945 0.000000
0.100329 0.852153 0.000000
0.298610 0.842569 0.000000
0.499069 0.833147 0.000000
0.701107 0.823842 0.000000
0.904124 0.814611 0.000000
1.000000 0.807438 0.000000
1.000000 0.808733 0.000000
0.000000 1.000000 0.000000
0.000000 1.000000 0.000000
0.122098 1.000000 0.000000
0.325323 1.000000 0.000000
0.528709 0.996118 0.000000
0.731658 0.986881 0.000000
0.933569 0.977567 0.000000
1.000000 0.973976 0.000000
1.000000 0.974971 0.000000
0.000000 1.000000 0.000000
0.000000 1.000000 0.000000
0.140945 1.000000 0.000000
0.344817 1.000000 0.000000
0.547858 1.000000 0.000000
0.749448 1.000000 0.000000
0.948967 1.000000 0.000000
1.000000 1.000000 0.000000
1.000000 1.000000 0.000000
0.000000 0.090685 0.217237
0.077198 0.085182 0.211593
0.260772 0.072297 0.197909
0.444504 0.057755 0.181964
0.628370 0.041810 0.164103
0.812345 0.024715 0.144672
0.996406 0.006724 0.124017
1.000000 0.000000 0.102484
1.000000 0.000000 0.092531
0.000000 0.163298 0.195947
0.060402 0.156436 0.188447
0.244219 0.141010 0.171294
0.428154 0.124334 0.152436
0.612184 0.106663 0.132219
0.796285 0.088250 0.110988
0.980432 0.069347 0.089090
1.000000 0.050209 0.066869
1.000000 0.041465 0.056648
0.000000 0.302786 0.134585
0.026363 0.294095 0.124589
0.210483 0.275474 0.103075
0.394642 0.256456 0.081019
0.578814 0.237295 0.058767
0.762975 0.218243 0.036666
0.947102 0.199554 0.015059
1.000000 0.181482 0.000000
1.000000 0.173288 0.000000
0.000000 0.433544 0.061307
0.000000 0.424395 0.050685
0.177176 0.405446 0.028724
0.361284 0.386953 0.007384
0.545325 0.369168 0.000000
0.729274 0.352345 0.000000
0.913108 0.336738 0.000000
1.000000 0.322599 0.000000
1.000000 0.316439 0.000000
0.000000 0.565218 0.000000
0.000000 0.556981 0.000000
0.143377 0.540572 0.000000
0.327163 0.525470 0.000000
0.510800 0.511929 0.000000
0.694264 0.500202 0.000000
0.879896 0.489674 0.000000
1.000000 0.479468 0.000000
1.000000 0.475505 0.000000
0.000000 0.707450 0.000000
0.000000 0.701498 0.000000
0.108470 0.690391 0.000000
0.295743 0.679986 0.000000
0.487114 0.669886 0.000000
0.681983 0.660047 0.000000
0.879752 0.650424 0.000000
1.000000 0.640973 0.000000
1.000000 0.640383 0.000000
0.000000 0.865088 0.000000
0.000000 0.860339 0.000000
0.100841 0.850584 0.000000
0.299516 0.841029 0.000000
0.500273 0.831628 0.000000
0.702511 0.822339 0.000000
0.905630 0.813115 0.000000
1.000000 0.806142 0.000000
1.000000 0.807433 0.000000
0.000000 1.000000 0.000000
0.000000 1.000000 0.000000
0.123550 1.000000 0.000000
0.326842 1.000000 0.000000
0.530198 0.994621 0.000000
0.733019 0.985375 0.000000
0.934705 0.976044 0.000000
1.000000 0.972585 0.000000
1.000000 0.973554 0.000000
0.000000 1.000000 0.000000
0.000000 1.000000 0.000000
0.142569 1.000000 0.000000
0.346348 1.000000 0.000000
0.549195 1.000000 0.000000
0.750491 1.000000 0.000000
0.949615 1.000000 0.000000
1.000000 1.000000 0.000000
1.000000 1.000000 0.000000
0.000000 0.086823 0.407355
0.073617 0.081008 0.401284
0.257248 0.067532 0.386793
0.441028 0.052485 0.370158
0.624933 0.036121 0.351725
0.808940 0.018693 0.331840
0.993024 0.000455 0.310848
1.000000 0.000000 0.289095
1.000000 0.000000 0.279050
0.000000 0.158462 0.384734
0.056908 0.151353 0.376897
0.240767 0.135474 0.359126
0.424738 0.118432 0.339768
0.608794 0.100481 0.319168
0.792913 0.081872 0.297671
0.977071 0.062861 0.275625
1.000000 0.043700 0.253374
1.000000 0.034947 0.243150
0.000000 0.296631 0.321572
0.022981 0.287831 0.311427
0.207117 0.269047 0.289690
0.391282 0.249952 0.267529
0.575453 0.230799 0.245290
0.759606 0.211843 0.223318
0.943716 0.193335 0.201958
1.000000 0.175530 0.181558
1.000000 0.167472 0.172377
0.000000 0.427044 0.247822
0.000000 0.417925 0.237241
0.173801 0.399102 0.215452
0.357889 0.380821 0.194402
0.541902 0.363334 0.174437
0.725814 0.346896 0.155902
0.909603 0.331759 0.139144
1.000000 0.318177 0.124508
1.000000 0.312308 0.118363
0.000000 0.559346 0.176651
0.000000 0.551278 0.167505
0.139902 0.535284 0.149578
0.323640 0.520683 0.133552
0.507221 0.507730 0.119775
0.690880 0.496587 0.108616
0.878045 0.486174 0.100546
1.000000 0.476067 0.095321
1.000000 0.472371 0.094748
0.000000 0.703180 0.121223
0.000000 0.697535 0.115385
0.105668 0.686820 0.105323
0.294399 0.676524 0.098337
0.487026 0.666518 0.094044
0.682947 0.656757 0.092030
0.881564 0.647198 0.091879
1.000000 0.637794 0.093178
1.000000 0.637609 0.098461
0.000000 0.861710 0.094411
0.000000 0.857001 0.093069
0.102137 0.847319 0.091781
0.301586 0.837821 0.092206
0.502913 0.828464 0.093930
0.705518 0.819201 0.096537
0.908801 0.809990 0.099614
1.000000 0.803428 0.105388
1.000000 0.804706 0.112476
0.000000 1.000000 0.093680
0.000000 1.000000 0.094799
0.126640 1.000000 0.097625
0.330021 1.000000 0.100769
0.533263 0.991487 0.103817
0.735765 0.982218 0.106353
0.936929 0.972848 0.107964
1.000000 0.969649 0.114550
1.000000 0.970562 0.119612
0.000000 1.000000 0.101344
0.000000 1.000000 0.103174
0.145935 1.000000 0.106995
0.349467 1.000000 0.110450
0.551857 1.000000 0.113104
0.752485 1.000000 0.114521
0.950730 1.000000 0.114266
1.000000 1.000000 0.119439
1.000000 1.000000 0.122816
0.000000 0.082738 0.597167
0.070056 0.076623 0.590687
0.253740 0.062585 0.575429
0.437566 0.047063 0.558145
0.621508 0.030309 0.539180
0.805544 0.012577 0.518880
0.989649 0.000000 0.497591
1.000000 0.000000 0.475659
1.000000 0.000000 0.465541
0.000000 0.153449 0.573279
0.053429 0.146107 0.565124
0.237329 0.129804 0.546775
0.421331 0.112425 0.526956
0.605412 0.094222 0.506013
0.789547 0.075449 0.484291
0.973712 0.056358 0.462136
1.000000 0.037204 0.439895
1.000000 0.028456 0.429689
0.000000 0.290397 0.508451
0.019605 0.281503 0.498177
0.203754 0.262584 0.476257
0.387924 0.243441 0.454031
0.572091 0.224327 0.431843
0.756232 0.205494 0.410040
0.940322 0.187197 0.388968
1.000000 0.169688 0.368972
1.000000 0.161782 0.360005
0.000000 0.420563 0.434364
0.000000 0.411487 0.423843
0.170421 0.392820 0.402266
0.354486 0.374781 0.381546
0.538467 0.357622 0.362027
0.722341 0.341597 0.344057
0.906082 0.326959 0.327981
1.000000 0.313963 0.314145
1.000000 0.308401 0.308420
0.000000 0.553591 0.364184
0.000000 0.545705 0.355288
0.136412 0.530156 0.337967
0.320099 0.516087 0.322666
0.503621 0.503750 0.309731
0.688039 0.493014 0.299593
0.876668 0.482710 0.292536
1.000000 0.472697 0.288182
1.000000 0.469288 0.288224
0.000000 0.699126 0.311077
0.000000 0.693801 0.305677
0.103383 0.683288 0.296685
0.293505 0.673095 0.290660
0.487317 0.663178 0.287188
0.684221 0.653491 0.285853
0.883617 0.643989 0.286241
1.000000 0.634629 0.287938
1.000000 0.634854 0.293757
0.000000 0.858360 0.287468
0.000000 0.853689 0.286476
0.103719 0.844075 0.285817
0.303873 0.834630 0.286729
0.505701 0.825310 0.288799
0.708603 0.816069 0.291613
0.911980 0.806865 0.294754
1.000000 0.800705 0.300863
1.000000 0.801966 0.307857
0.000000 1.000000 0.288518
0.000000 1.000000 0.289759
0.129783 1.000000 0.292740
0.333184 0.997576 0.295898
0.536242 0.988348 0.298819
0.738357 0.979049 0.301088
0.938930 0.969635 0.302290
1.000000 0.966673 0.308622
1.000000 0.967525 0.313344
0.000000 1.000000 0.296702
0.000000 1.000000 0.298548
0.149240 1.000000 0.302294
0.352454 1.000000 0.305525
0.554315 1.000000 0.307808
0.754203 1.000000 0.308706
0.951499 1.000000 0.307784
1.000000 1.000000 0.312335
1.000000 1.000000 0.315232
0.000000 0.078438 0.786685
0.066514 0.072038 0.779816
0.250249 0.057467 0.763832
0.434117 0.041499 0.745938
0.618094 0.024384 0.726481
0.802156 0.006378 0.705806
0.986279 0.000000 0.684260
1.000000 0.000000 0.662188
1.000000 0.000000 0.652015
0.000000 0.148268 0.761595
0.049965 0.140707 0.753142
0.233902 0.124010 0.734255
0.417934 0.106323 0.714015
0.602035 0.087898 0.692769
0.786183 0.068988 0.670861
0.970353 0.049848 0.648638
1.000000 0.030730 0.626445
1.000000 0.022001 0.616276
0.000000 0.284094 0.695235
0.016234 0.275119 0.684851
0.200393 0.256096 0.662789
0.384565 0.236934 0.640537
0.568726 0.217887 0.618441
0.752852 0.199208 0.596847
0.936919 0.181150 0.576102
1.000000 0.163966 0.556550
1.000000 0.156227 0.547818
0.000000 0.414111 0.620945
0.000000 0.405093 0.610503
0.167034 0.386611 0.589178
0.351073 0.368842 0.568827
0.535020 0.352040 0.549796
0.718851 0.336458 0.532430
0.902542 0.322349 0.517076
1.000000 0.309967 0.504079
1.000000 0.304720 0.498802
0.000000 0.547964 0.551892
0.000000 0.540275 0.543263
0.132905 0.525200 0.526589
0.316539 0.511690 0.512053
0.500000 0.500000 0.500000
0.685719 0.489479 0.490930
0.875742 0.479279 0.484838
1.000000 0.469355 0.481308
1.000000 0.466252 0.481963
0.000000 0.695297 0.501240
0.000000 0.690192 0.496327
0.101594 0.679793 0.488389
0.293036 0.669699 0.483278
0.487966 0.659864 0.480578
0.685783 0.650245 0.479875
0.885889 0.640797 0.480754
1.000000 0.631474 0.482801
1.000000 0.632115 0.489140
0.000000 0.855038 0.480777
0.000000 0.850402 0.480112
0.105562 0.840850 0.480033
0.306352 0.831453 0.481386
0.508612 0.822165 0.483755
0.711743 0.812942 0.486726
0.915145 0.803739 0.489885
1.000000 0.797971 0.496275
1.000000 0.799211 0.503151
0.000000 1.000000 0.483446
0.000000 1.000000 0.484789
0.132956 1.000000 0.487876
0.336307 0.994447 0.491000
0.539112 0.985200 0.493746
0.740771 0.975867 0.495699
0.940683 0.966404 0.496445
1.000000 0.963654 0.502456
1.000000 0.964440 0.506813
0.000000 1.000000 0.492075
0.000000 1.000000 0.493913
0.152461 1.000000 0.497533
0.355285 1.000000 0.500491
0.556546 1.000000 0.502352
0.755623 1.000000 0.502681
0.951896 1.000000 0.501042
1.000000 1.000000 0.504894
1.000000 1.000000 0.507286
0.000000 0.073933 0.975925
0.062990 0.067262 0.968686
0.246773 0.052188 0.952014
0.430681 0.035802 0.933551
0.614689 0.018357 0.913642
0.798775 0.000105 0.892632
0.982913 0.000000 0.870868
1.000000 0.000000 0.848696
1.000000 0.000000 0.838489
0.000000 0.142929 0.949697
0.046514 0.135163 0.940963
0.230486 0.118102 0.921578
0.414544 0.100136 0.900958
0.598664 0.081518 0.879448
0.782822 0.062501 0.857394
0.966994 0.043340 0.835143
1.000000 0.024287 0.813039
1.000000 0.015593 0.802927
0.000000 0.277731 0.881938
0.012868 0.268690 0.871464
0.197034 0.249591 0.849298
0.381205 0.230440 0.827060
0.565357 0.211490 0.805096
0.749465 0.192993 0.783752
0.933507 0.175204 0.763373
1.000000 0.158375 0.744306
1.000000 0.150817 0.735829
0.000000 0.407698 0.807580
0.000000 0.398752 0.797236
0.163638 0.380484 0.776203
0.347649 0.363015 0.756262
0.531560 0.346598 0.737757
0.715346 0.331488 0.721036
0.898984 0.317938 0.706443
1.000000 0.306200 0.694325
1.000000 0.301151 0.689582
0.000000 0.542474 0.739787
0.000000 0.534995 0.731445
0.129382 0.520424 0.715458
0.312960 0.507504 0.701727
0.496646 0.496388 0.690623
0.683894 0.485981 0.682611
0.875244 0.475880 0.677435
1.000000 0.466040 0.674681
1.000000 0.463260 0.675946
0.000000 0.691661 0.691737
0.000000 0.686624 0.687351
0.100276 0.676333 0.680420
0.292970 0.666332 0.676174
0.488947 0.656576 0.674198
0.687609 0.647019 0.674079
0.888355 0.637619 0.675401
1.000000 0.628329 0.677750
1.000000 0.629389 0.684593
0.000000 0.851741 0.674322
0.000000 0.847138 0.673962
0.107645 0.837644 0.674415
0.309001 0.828289 0.676160
0.511624 0.819028 0.678780
0.714914 0.809816 0.681861
0.918272 0.800610 0.684989
1.000000 0.795222 0.691607
1.000000 0.796436 0.698339
0.000000 1.000000 0.678449
0.000000 1.000000 0.679870
0.136134 1.000000 0.683016
0.339368 0.991314 0.686058
0.541851 0.982042 0.688581
0.742983 0.972670 0.690171
0.942167 0.963153 0.690412
1.000000 0.960590 0.696035
1.000000 0.961305 0.700001
0.000000 1.000000 0.687446
0.000000 1.000000 0.689252
0.155574 1.000000 0.692696
0.357936 1.000000 0.695331
0.558525 1.000000 0.696720
0.756719 1.000000 0.696430
0.951900 1.000000 0.694024
1.000000 1.000000 0.697098
1.000000 1.000000 0.698960
0.000000 0.069234 1.000000
0.059484 0.062306 1.000000
0.243312 0.046758 1.000000
0.427256 0.029984 1.000000
0.611294 0.012236 1.000000
0.795400 0.000000 1.000000
0.979550 0.000000 1.000000
1.000000 0.000000 1.000000
1.000000 0.000000 1.000000
0.000000 0.137443 1.000000
0.043076 0.129487 1.000000
0.227080 0.112089 1.000000
0.411162 0.093873 1.000000
0.595298 0.075092 1.000000
0.779463 0.055998 1.000000
0.963634 0.036845 1.000000
1.000000 0.017886 0.999690
1.000000 0.009240 0.989654
0.000000 0.271320 1.000000
0.009505 0.262226 1.000000
0.193675 0.243081 1.000000
0.377842 0.223969 1.000000
0.561982 0.205144 0.991824
0.746071 0.186860 0.970768
0.930084 0.169368 0.950796
1.000000 0.152923 0.932252
1.000000 0.145564 0.924051
0.000000 0.401334 0.994281
0.000000 0.392474 0.984055
0.160235 0.374449 0.963354
0.344214 0.357309 0.943861
0.528085 0.341308 0.925924
0.711824 0.326699 0.909886
0.895406 0.313735 0.896095
1.000000 0.302584 0.884920
1.000000 0.297654 0.880763
0.000000 0.537132 0.927883
0.000000 0.529877 0.919847
0.125840 0.515838 0.904587
0.309359 0.503537 0.891700
0.493835 0.492817 0.881621
0.682543 0.482519 0.874618
0.875149 0.472511 0.870311
1.000000 0.462749 0.868285
1.000000 0.460310 0.870157
0.000000 0.688076 0.882610
0.000000 0.683094 0.878733
0.099406 0.672906 0.872760
0.293282 0.662994 0.869332
0.490238 0.653310 0.868033
0.689675 0.643812 0.868450
0.890993 0.634454 0.870167
1.000000 0.625385 0.872965
1.000000 0.626671 0.880098
0.000000 0.848468 0.868087
0.000000 0.843896 0.868008
0.109943 0.834453 0.868946
0.311796 0.825135 0.871034
0.514713 0.815896 0.873857
0.718093 0.806692 0.877001
0.921337 0.797477 0.880051
1.000000 0.792456 0.886840
1.000000 0.793640 0.893403
0.000000 1.000000 0.873511
0.000000 1.000000 0.874987
0.139296 0.997403 0.878144
0.342341 0.988174 0.881056
0.544433 0.978873 0.883309
0.744971 0.969457 0.884487
0.943356 0.959880 0.884176
1.000000 0.957476 0.889340
1.000000 0.958116 0.892891
0.000000 1.000000 0.882798
0.000000 1.000000 0.884548
0.158553 1.000000 0.887766
0.360382 1.000000 0.890026
0.560228 1.000000 0.890894
0.757468 1.000000 0.889934
0.951484 1.000000 0.886711
1.000000 1.000000 0.888929
1.000000 1.000000 0.890233
0.000000 0.065316 1.000000
0.056895 0.058081 1.000000
0.240603 0.041925 1.000000
0.424384 0.024594 1.000000
0.608222 0.006348 1.000000
0.792101 0.000000 1.000000
0.976189 0.000000 1.000000
1.000000 0.000000 1.000000
1.000000 0.000000 1.000000
0.000000 0.132535 1.000000
0.040272 0.124308 1.000000
0.224090 0.106389 1.000000
0.407955 0.087714 1.000000
0.591935 0.068630 1.000000
0.776105 0.049487 1.000000
0.960272 0.030372 1.000000
1.000000 0.011537 1.000000
1.000000 0.002954 1.000000
0.000000 0.264868 1.000000
0.006144 0.255736 1.000000
0.190316 0.236574 1.000000
0.374477 0.217532 1.000000
0.558602 0.198862 1.000000
0.742668 0.180818 1.000000
0.926649 0.163653 1.000000
1.000000 0.147621 1.000000
1.000000 0.140475 1.000000
0.000000 0.395029 1.000000
0.000000 0.386269 1.000000
0.156821 0.368516 1.000000
0.340766 0.351734 1.000000
0.524595 0.336178 1.000000
0.708283 0.322099 1.000000
0.891806 0.309752 1.000000
1.000000 0.299010 1.000000
1.000000 0.294226 1.000000
0.000000 0.531947 1.000000
0.000000 0.524930 1.000000
0.122279 0.511453 1.000000
0.305737 0.499799 1.000000
0.491542 0.489284 1.000000
0.681641 0.479090 1.000000
0.875435 0.469171 1.000000
1.000000 0.459482 1.000000
1.000000 0.457397 1.000000
0.000000 0.684530 1.000000
0.000000 0.679601 1.000000
0.098960 0.669511 1.000000
0.293949 0.659681 1.000000
0.491815 0.650066 1.000000
0.691958 0.640620 1.000000
0.893778 0.631299 1.000000
1.000000 0.622664 1.000000
1.000000 0.623960 1.000000
0.000000 0.845217 1.000000
0.000000 0.840672 1.000000
0.112432 0.831277 1.000000
0.314714 0.821991 1.000000
0.517856 0.812769 1.000000
0.721332 0.803641 1.000000
0.924690 0.794709 1.000000
1.000000 0.790322 1.000000
1.000000 0.791598 1.000000
0.000000 1.000000 1.000000
0.000000 1.000000 1.000000
0.142601 0.994458 1.000000
0.345681 0.985501 1.000000
0.547587 0.976441 1.000000
0.747708 0.967223 1.000000
0.945438 0.957794 1.000000
1.000000 0.955688 1.000000
1.000000 0.956311 1.000000
0.000000 1.000000 1.000000
0.000000 1.000000 1.000000
0.162020 1.000000 1.000000
0.363505 1.000000 1.000000
0.562762 1.000000 1.000000
0.759163 1.000000 1.000000
0.952079 1.000000 1.000000
1.000000 1.000000 1.000000
1.000000 1.000000 1.000000
0.000000 0.064635 1.000000
0.056945 0.057285 1.000000
0.240666 0.040921 1.000000
0.424457 0.023423 1.000000
0.608303 0.005054 1.000000
0.792187 0.000000 1.000000
0.976093 0.000000 1.000000
1.000000 0.000000 1.000000
1.000000 0.000000 1.000000
0.000000 0.131506 1.000000
0.040342 0.123197 1.000000
0.224168 0.105138 1.000000
0.408039 0.086365 1.000000
0.591938 0.067141 1.000000
0.775850 0.047725 1.000000
0.959756 0.028380 1.000000
1.000000 0.009367 1.000000
1.000000 0.000706 1.000000
0.000000 0.263413 1.000000
0.006055 0.254143 1.000000
0.189966 0.234723 1.000000
0.373867 0.215468 1.000000
0.557742 0.196640 1.000000
0.741573 0.178500 1.000000
0.925345 0.161308 1.000000
1.000000 0.145327 1.000000
1.000000 0.138228 1.000000
0.000000 0.392823 1.000000
0.000000 0.384005 1.000000
0.155647 0.366180 1.000000
0.339394 0.349399 1.000000
0.523059 0.333922 1.000000
0.706626 0.320012 1.000000
0.890078 0.307929 1.000000
1.000000 0.297338 1.000000
1.000000 0.292669 1.000000
0.000000 0.529678 1.000000
0.000000 0.522725 1.000000
0.120590 0.509450 1.000000
0.304080 0.498069 1.000000
0.490671 0.487657 1.000000
0.681522 0.477621 1.000000
0.876023 0.467907 1.000000
1.000000 0.458461 1.000000
1.000000 0.456663 1.000000
0.000000 0.682888 1.000000
0.000000 0.678025 1.000000
0.099103 0.668112 1.000000
0.294783 0.658502 1.000000
0.493283 0.649141 1.000000
0.693996 0.639975 1.000000
0.896312 0.630951 1.000000
1.000000 0.622817 1.000000
1.000000 0.624260 1.000000
0.000000 0.844262 1.000000
0.000000 0.839847 1.000000
0.114660 0.830739 1.000000
0.317409 0.821753 1.000000
0.520931 0.812835 1.000000
0.724619 0.803931 1.000000
0.927863 0.794989 1.000000
1.000000 0.790762 1.000000
1.000000 0.792017 1.000000
0.000000 1.000000 1.000000
0.000000 1.000000 1.000000
0.145857 0.994746 1.000000
0.348788 0.985775 1.000000
0.550445 0.976693 1.000000
0.750220 0.967444 1.000000
0.947504 0.957976 1.000000
1.000000 0.955914 1.000000
1.000000 0.956493 1.000000
0.000000 1.000000 1.000000
0.000000 1.000000 1.000000
0.165088 1.000000 1.000000
0.366254 1.000000 1.000000
0.565090 1.000000 1.000000
0.760968 1.000000 1.000000
0.953259 1.000000 1.000000
1.000000 1.000000 1.000000
1.000000 1.000000 1.000000
