cyberpunk.cube
TITLE "cyberpunk"
LUT_3D_SIZE 5
DOMAIN_MIN 0.0 0.0 0.0
DOMAIN_MAX 1.0 1.0 1.0
0.000000 0.092449 0.126199
0.262464 0.074509 0.107482
0.630018 0.044485 0.074307
0.998026 0.009696 0.034628
1.000000 0.000000 0.003312
0.000000 0.305699 0.045115
0.212095 0.278532 0.013802
0.580420 0.240406 0.000000
0.948719 0.202555 0.000000
1.000000 0.176111 0.000000
0.000000 0.568065 0.000000
0.145034 0.543155 0.000000
0.512504 0.514011 0.000000
0.880956 0.491361 0.000000
1.000000 0.477022 0.000000
0.000000 0.866714 0.000000
0.100329 0.852153 0.000000
0.499069 0.833147 0.000000
0.904124 0.814611 0.000000
1.000000 0.808733 0.000000
0.000000 1.000000 0.000000
0.140945 1.000000 0.000000
0.547858 1.000000 0.000000
0.948967 1.000000 0.000000
1.000000 1.000000 0.000000
0.000000 0.086823 0.407355
0.257248 0.067532 0.386793
0.624933 0.036121 0.351725
0.993024 0.000455 0.310848
1.000000 0.000000 0.279050
0.000000 0.296631 0.321572
0.207117 0.269047 0.289690
0.575453 0.230799 0.245290
0.943716 0.193335 0.201958
1.000000 0.167472 0.172377
0.000000 0.559346 0.176651
0.139902 0.535284 0.149578
0.507221 0.507730 0.119775
0.878045 0.486174 0.100546
1.000000 0.472371 0.094748
0.000000 0.861710 0.094411
0.102137 0.847319 0.091781
0.502913 0.828464 0.093930
0.908801 0.809990 0.099614
1.000000 0.804706 0.112476
0.000000 1.000000 0.101344
0.145935 1.000000 0.106995
0.551857 1.000000 0.113104
0.950730 1.000000 0.114266
1.000000 1.000000 0.122816
0.000000 0.078438 0.786685
0.250249 0.057467 0.763832
0.618094 0.024384 0.726481
0.986279 0.000000 0.684260
1.000000 0.000000 0.652015
0.000000 0.284094 0.695235
0.200393 0.256096 0.662789
0.568726 0.217887 0.618441
0.936919 0.181150 0.576102
1.000000 0.156227 0.547818
0.000000 0.547964 0.551892
0.132905 0.525200 0.526589
0.500000 0.500000 0.500000
0.875742 0.479279 0.484838
1.000000 0.466252 0.481963
0.000000 0.855038 0.480777
0.105562 0.840850 0.480033
0.508612 0.822165 0.483755
0.915145 0.803739 0.489885
1.000000 0.799211 0.503151
0.000000 1.000000 0.492075
0.152461 1.000000 0.497533
0.556546 1.000000 0.502352
0.951896 1.000000 0.501042
1.000000 1.000000 0.507286
0.000000 0.069234 1.000000
0.243312 0.046758 1.000000
0.611294 0.012236 1.000000
0.979550 0.000000 1.000000
1.000000 0.000000 1.000000
0.000000 0.271320 1.000000
0.193675 0.243081 1.000000
0.561982 0.205144 0.991824
0.930084 0.169368 0.950796
1.000000 0.145564 0.924051
0.000000 0.537132 0.927883
0.125840 0.515838 0.904587
0.493835 0.492817 0.881621
0.875149 0.472511 0.870311
1.000000 0.460310 0.870157
0.000000 0.848468 0.868087
0.109943 0.834453 0.868946
0.514713 0.815896 0.873857
0.921337 0.797477 0.880051
1.000000 0.793640 0.893403
0.000000 1.000000 0.882798
0.158553 1.000000 0.887766
0.560228 1.000000 0.890894
0.951484 1.000000 0.886711
1.000000 1.000000 0.890233
0.000000 0.064635 1.000000
0.240666 0.040921 1.000000
0.608303 0.005054 1.000000
0.976093 0.000000 1.000000
1.000000 0.000000 1.000000
0.000000 0.263413 1.000000
0.189966 0.234723 1.000000
0.557742 0.196640 1.000000
0.925345 0.161308 1.000000
1.000000 0.138228 1.000000
0.000000 0.529678 1.000000
0.120590 0.509450 1.000000
0.490671 0.487657 1.000000
0.876023 0.467907 1.000000
1.000000 0.456663 1.000000
0.000000 0.844262 1.000000
0.114660 0.830739 1.000000
0.520931 0.812835 1.000000
0.927863 0.794989 1.000000
1.000000 0.792017 1.000000
0.000000 1.000000 1.000000
0.165088 1.000000 1.000000
0.565090 1.000000 1.000000
0.953259 1.000000 1.000000
1.000000 1.000000 1.000000
