cyberpunk.cube
TITLE "cyberpunk"
LUT_3D_SIZE 17
DOMAIN_MIN 0.0 0.0 0.0
DOMAIN_MAX 1.0 1.0 1.0
0.000000 0.092449 0.126199
0.000000 0.092449 0.126199
0.078918 0.087101 0.120766
0.170669 0.081033 0.114435
0.262464 0.074509 0.107482
0.354300 0.067561 0.099949
0.446173 0.060219 0.091881
0.538080 0.052517 0.083319
0.630018 0.044485 0.074307
0.721985 0.036155 0.064889
0.813977 0.027560 0.055108
0.905992 0.018729 0.045006
0.998026 0.009696 0.034628
1.000000 0.000492 0.024016
1.000000 0.000000 0.013214
1.000000 0.000000 0.003312
1.000000 0.000000 0.003312
0.000000 0.092449 0.126199
0.000000 0.092449 0.126199
0.078918 0.087101 0.120766
0.170669 0.081033 0.114435
0.262464 0.074509 0.107482
0.354300 0.067561 0.099949
0.446173 0.060219 0.091881
0.538080 0.052517 0.083319
0.630018 0.044485 0.074307
0.721985 0.036155 0.064889
0.813977 0.027560 0.055108
0.905992 0.018729 0.045006
0.998026 0.009696 0.034628
1.000000 0.000492 0.024016
1.000000 0.000000 0.013214
1.000000 0.000000 0.003312
1.000000 0.000000 0.003312
0.000000 0.165546 0.105568
0.000000 0.165546 0.105568
0.062079 0.158806 0.098236
0.153960 0.151384 0.090056
0.245874 0.143607 0.081393
0.337819 0.135508 0.072289
0.429792 0.127117 0.062788
0.521789 0.118468 0.052934
0.613808 0.109591 0.042768
0.705846 0.100518 0.032335
0.797899 0.091280 0.021678
0.889965 0.081911 0.010840
0.982040 0.072440 0.000000
1.000000 0.062900 0.000000
1.000000 0.053323 0.000000
1.000000 0.044588 0.000000
1.000000 0.044588 0.000000
0.000000 0.237375 0.077733
0.000000 0.237375 0.077733
0.044881 0.229516 0.068874
0.136863 0.221028 0.059239
0.228868 0.212292 0.049266
0.320894 0.203340 0.038999
0.412938 0.194203 0.028479
0.504996 0.184914 0.017751
0.597066 0.175504 0.006858
0.689144 0.166004 0.000000
0.781228 0.156447 0.000000
0.873314 0.146864 0.000000
0.965400 0.137286 0.000000
1.000000 0.127746 0.000000
1.000000 0.118274 0.000000
1.000000 0.109601 0.000000
1.000000 0.109601 0.000000
0.000000 0.305699 0.045115
0.000000 0.305699 0.045115
0.027983 0.297064 0.035196
0.120032 0.287869 0.024595
0.212095 0.278532 0.013802
0.304168 0.269085 0.002860
0.396249 0.259561 0.000000
0.488334 0.249991 0.000000
0.580420 0.240406 0.000000
0.672505 0.230838 0.000000
0.764585 0.221319 0.000000
0.856657 0.211881 0.000000
0.948719 0.202555 0.000000
1.000000 0.193372 0.000000
1.000000 0.184365 0.000000
1.000000 0.176111 0.000000
1.000000 0.176111 0.000000
0.000000 0.371725 0.009359
0.000000 0.371725 0.009359
0.011271 0.362657 0.000000
0.103354 0.353112 0.000000
0.195440 0.343533 0.000000
0.287526 0.333950 0.000000
0.379609 0.324397 0.000000
0.471687 0.314903 0.000000
0.563756 0.305502 0.000000
0.655813 0.296224 0.000000
0.747855 0.287102 0.000000
0.839880 0.278167 0.000000
0.931883 0.269451 0.000000
1.000000 0.260984 0.000000
1.000000 0.252800 0.000000
1.000000 0.245335 0.000000
1.000000 0.245335 0.000000
0.000000 0.436657 0.000000
0.000000 0.436657 0.000000
0.000000 0.427498 0.000000
0.086713 0.417963 0.000000
0.178788 0.408500 0.000000
0.270853 0.399140 0.000000
0.362905 0.389915 0.000000
0.454941 0.380857 0.000000
0.546958 0.371998 0.000000
0.638953 0.363369 0.000000
0.730924 0.355002 0.000000
0.822866 0.346928 0.000000
0.914778 0.339180 0.000000
1.000000 0.331788 0.000000
1.000000 0.324785 0.000000
1.000000 0.318491 0.000000
1.000000 0.318491 0.000000
0.000000 0.501702 0.000000
0.000000 0.501702 0.000000
0.000000 0.492795 0.000000
0.069994 0.483628 0.000000
0.162024 0.474638 0.000000
0.254034 0.465859 0.000000
0.346020 0.457322 0.000000
0.437981 0.449058 0.000000
0.529912 0.441099 0.000000
0.621812 0.433477 0.000000
0.713676 0.426223 0.000000
0.805503 0.419370 0.000000
0.897288 0.412948 0.000000
0.989029 0.406989 0.000000
1.000000 0.401510 0.000000
1.000000 0.396513 0.000000
1.000000 0.396513 0.000000
0.000000 0.568065 0.000000
0.000000 0.568065 0.000000
0.000000 0.559753 0.000000
0.053084 0.551311 0.000000
0.145034 0.543155 0.000000
0.236954 0.535315 0.000000
0.328841 0.527823 0.000000
0.420692 0.520711 0.000000
0.512504 0.514011 0.000000
0.604274 0.507754 0.000000
0.695998 0.501972 0.000000
0.787930 0.496609 0.000000
0.880956 0.491361 0.000000
0.975086 0.486195 0.000000
1.000000 0.481106 0.000000
1.000000 0.477022 0.000000
1.000000 0.477022 0.000000
0.000000 0.636951 0.000000
0.000000 0.636951 0.000000
0.000000 0.629577 0.000000
0.035866 0.622220 0.000000
0.127703 0.615254 0.000000
0.219500 0.608712 0.000000
0.311253 0.602624 0.000000
0.402960 0.597023 0.000000
0.495246 0.591719 0.000000
0.588682 0.586502 0.000000
0.683195 0.581365 0.000000
0.778709 0.576302 0.000000
0.875150 0.571308 0.000000
0.972442 0.566378 0.000000
1.000000 0.561506 0.000000
1.000000 0.558886 0.000000
1.000000 0.558886 0.000000
0.000000 0.709566 0.000000
0.000000 0.709566 0.000000
0.000000 0.703472 0.000000
0.018227 0.697558 0.000000
0.110001 0.692113 0.000000
0.202714 0.686842 0.000000
0.296551 0.681654 0.000000
0.391437 0.676544 0.000000
0.487297 0.671508 0.000000
0.584056 0.666538 0.000000
0.681639 0.661629 0.000000
0.779972 0.656777 0.000000
0.878978 0.651975 0.000000
0.978583 0.647217 0.000000
1.000000 0.642498 0.000000
1.000000 0.641718 0.000000
1.000000 0.641718 0.000000
0.000000 0.786985 0.000000
0.000000 0.786985 0.000000
0.000000 0.781975 0.000000
0.004559 0.776816 0.000000
0.099808 0.771734 0.000000
0.196004 0.766722 0.000000
0.293072 0.761775 0.000000
0.390936 0.756888 0.000000
0.489523 0.752054 0.000000
0.588756 0.747269 0.000000
0.688561 0.742526 0.000000
0.788863 0.737820 0.000000
0.889587 0.733146 0.000000
0.990658 0.728498 0.000000
1.000000 0.723870 0.000000
1.000000 0.725129 0.000000
1.000000 0.725129 0.000000
0.000000 0.866714 0.000000
0.000000 0.866714 0.000000
0.000000 0.861945 0.000000
0.002193 0.857021 0.000000
0.100329 0.852153 0.000000
0.199160 0.847338 0.000000
0.298610 0.842569 0.000000
0.398604 0.837840 0.000000
0.499069 0.833147 0.000000
0.599928 0.828482 0.000000
0.701107 0.823842 0.000000
0.802531 0.819220 0.000000
0.904124 0.814611 0.000000
1.000000 0.810008 0.000000
1.000000 0.807438 0.000000
1.000000 0.808733 0.000000
1.000000 0.808733 0.000000
0.000000 0.947216 0.000000
0.000000 0.947216 0.000000
0.000000 0.942628 0.000000
0.008536 0.937874 0.000000
0.108710 0.933159 0.000000
0.209327 0.928477 0.000000
0.310311 0.923822 0.000000
0.411588 0.919189 0.000000
0.513082 0.914572 0.000000
0.614719 0.909966 0.000000
0.716424 0.905365 0.000000
0.818121 0.900763 0.000000
0.919736 0.896155 0.000000
1.000000 0.891535 0.000000
1.000000 0.890943 0.000000
1.000000 0.892143 0.000000
1.000000 0.892143 0.000000
0.000000 1.000000 0.000000
0.000000 1.000000 0.000000
0.000000 1.000000 0.000000
0.020733 1.000000 0.000000
0.122098 1.000000 0.000000
0.223653 1.000000 0.000000
0.325323 1.000000 0.000000
0.427033 1.000000 0.000000
0.528709 0.996118 0.000000
0.630276 0.991506 0.000000
0.731658 0.986881 0.000000
0.832781 0.982236 0.000000
0.933569 0.977567 0.000000
1.000000 0.972867 0.000000
1.000000 0.973976 0.000000
1.000000 0.974971 0.000000
1.000000 0.974971 0.000000
0.000000 1.000000 0.000000
0.000000 1.000000 0.000000
0.000000 1.000000 0.000000
0.038892 1.000000 0.000000
0.140945 1.000000 0.000000
0.242946 1.000000 0.000000
0.344817 1.000000 0.000000
0.446480 1.000000 0.000000
0.547858 1.000000 0.000000
0.648873 1.000000 0.000000
0.749448 1.000000 0.000000
0.849505 1.000000 0.000000
0.948967 1.000000 0.000000
1.000000 1.000000 0.000000
1.000000 1.000000 0.000000
1.000000 1.000000 0.000000
1.000000 1.000000 0.000000
0.000000 1.000000 0.000000
0.000000 1.000000 0.000000
0.000000 1.000000 0.000000
0.038892 1.000000 0.000000
0.140945 1.000000 0.000000
0.242946 1.000000 0.000000
0.344817 1.000000 0.000000
0.446480 1.000000 0.000000
0.547858 1.000000 0.000000
0.648873 1.000000 0.000000
0.749448 1.000000 0.000000
0.849505 1.000000 0.000000
0.948967 1.000000 0.000000
1.000000 1.000000 0.000000
1.000000 1.000000 0.000000
1.000000 1.000000 0.000000
1.000000 1.000000 0.000000
0.000000 0.092449 0.126199
0.000000 0.092449 0.126199
0.078918 0.087101 0.120766
0.170669 0.081033 0.114435
0.262464 0.074509 0.107482
0.354300 0.067561 0.099949
0.446173 0.060219 0.091881
0.538080 0.052517 0.083319
0.630018 0.044485 0.074307
0.721985 0.036155 0.064889
0.813977 0.027560 0.055108
0.905992 0.018729 0.045006
0.998026 0.009696 0.034628
1.000000 0.000492 0.024016
1.000000 0.000000 0.013214
1.000000 0.000000 0.003312
1.000000 0.000000 0.003312
0.000000 0.092449 0.126199
0.000000 0.092449 0.126199
0.078918 0.087101 0.120766
0.170669 0.081033 0.114435
0.262464 0.074509 0.107482
0.354300 0.067561 0.099949
0.446173 0.060219 0.091881
0.538080 0.052517 0.083319
0.630018 0.044485 0.074307
0.721985 0.036155 0.064889
0.813977 0.027560 0.055108
0.905992 0.018729 0.045006
0.998026 0.009696 0.034628
1.000000 0.000492 0.024016
1.000000 0.000000 0.013214
1.000000 0.000000 0.003312
1.000000 0.000000 0.003312
0.000000 0.165546 0.105568
0.000000 0.165546 0.105568
0.062079 0.158806 0.098236
0.153960 0.151384 0.090056
0.245874 0.143607 0.081393
0.337819 0.135508 0.072289
0.429792 0.127117 0.062788
0.521789 0.118468 0.052934
0.613808 0.109591 0.042768
0.705846 0.100518 0.032335
0.797899 0.091280 0.021678
0.889965 0.081911 0.010840
0.982040 0.072440 0.000000
1.000000 0.062900 0.000000
1.000000 0.053323 0.000000
1.000000 0.044588 0.000000
1.000000 0.044588 0.000000
0.000000 0.237375 0.077733
0.000000 0.237375 0.077733
0.044881 0.229516 0.068874
0.136863 0.221028 0.059239
0.228868 0.212292 0.049266
0.320894 0.203340 0.038999
0.412938 0.194203 0.028479
0.504996 0.184914 0.017751
0.597066 0.175504 0.006858
0.689144 0.166004 0.000000
0.781228 0.156447 0.000000
0.873314 0.146864 0.000000
0.965400 0.137286 0.000000
1.000000 0.127746 0.000000
1.000000 0.118274 0.000000
1.000000 0.109601 0.000000
1.000000 0.109601 0.000000
0.000000 0.305699 0.045115
0.000000 0.305699 0.045115
0.027983 0.297064 0.035196
0.120032 0.287869 0.024595
0.212095 0.278532 0.013802
0.304168 0.269085 0.002860
0.396249 0.259561 0.000000
0.488334 0.249991 0.000000
0.580420 0.240406 0.000000
0.672505 0.230838 0.000000
0.764585 0.221319 0.000000
0.856657 0.211881 0.000000
0.948719 0.202555 0.000000
1.000000 0.193372 0.000000
1.000000 0.184365 0.000000
1.000000 0.176111 0.000000
1.000000 0.176111 0.000000
0.000000 0.371725 0.009359
0.000000 0.371725 0.009359
0.011271 0.362657 0.000000
0.103354 0.353112 0.000000
0.195440 0.343533 0.000000
0.287526 0.333950 0.000000
0.379609 0.324397 0.000000
0.471687 0.314903 0.000000
0.563756 0.305502 0.000000
0.655813 0.296224 0.000000
0.747855 0.287102 0.000000
0.839880 0.278167 0.000000
0.931883 0.269451 0.000000
1.000000 0.260984 0.000000
1.000000 0.252800 0.000000
1.000000 0.245335 0.000000
1.000000 0.245335 0.000000
0.000000 0.436657 0.000000
0.000000 0.436657 0.000000
0.000000 0.427498 0.000000
0.086713 0.417963 0.000000
0.178788 0.408500 0.000000
0.270853 0.399140 0.000000
0.362905 0.389915 0.000000
0.454941 0.380857 0.000000
0.546958 0.371998 0.000000
0.638953 0.363369 0.000000
0.730924 0.355002 0.000000
0.822866 0.346928 0.000000
0.914778 0.339180 0.000000
1.000000 0.331788 0.000000
1.000000 0.324785 0.000000
1.000000 0.318491 0.000000
1.000000 0.318491 0.000000
0.000000 0.501702 0.000000
0.000000 0.501702 0.000000
0.000000 0.492795 0.000000
0.069994 0.483628 0.000000
0.162024 0.474638 0.000000
0.254034 0.465859 0.000000
0.346020 0.457322 0.000000
0.437981 0.449058 0.000000
0.529912 0.441099 0.000000
0.621812 0.433477 0.000000
0.713676 0.426223 0.000000
0.805503 0.419370 0.000000
0.897288 0.412948 0.000000
0.989029 0.406989 0.000000
1.000000 0.401510 0.000000
1.000000 0.396513 0.000000
1.000000 0.396513 0.000000
0.000000 0.568065 0.000000
0.000000 0.568065 0.000000
0.000000 0.559753 0.000000
0.053084 0.551311 0.000000
0.145034 0.543155 0.000000
0.236954 0.535315 0.000000
0.328841 0.527823 0.000000
0.420692 0.520711 0.000000
0.512504 0.514011 0.000000
0.604274 0.507754 0.000000
0.695998 0.501972 0.000000
0.787930 0.496609 0.000000
0.880956 0.491361 0.000000
0.975086 0.486195 0.000000
1.000000 0.481106 0.000000
1.000000 0.477022 0.000000
1.000000 0.477022 0.000000
0.000000 0.636951 0.000000
0.000000 0.636951 0.000000
0.000000 0.629577 0.000000
0.035866 0.622220 0.000000
0.127703 0.615254 0.000000
0.219500 0.608712 0.000000
0.311253 0.602624 0.000000
0.402960 0.597023 0.000000
0.495246 0.591719 0.000000
0.588682 0.586502 0.000000
0.683195 0.581365 0.000000
0.778709 0.576302 0.000000
0.875150 0.571308 0.000000
0.972442 0.566378 0.000000
1.000000 0.561506 0.000000
1.000000 0.558886 0.000000
1.000000 0.558886 0.000000
0.000000 0.709566 0.000000
0.000000 0.709566 0.000000
0.000000 0.703472 0.000000
0.018227 0.697558 0.000000
0.110001 0.692113 0.000000
0.202714 0.686842 0.000000
0.296551 0.681654 0.000000
0.391437 0.676544 0.000000
0.487297 0.671508 0.000000
0.584056 0.666538 0.000000
0.681639 0.661629 0.000000
0.779972 0.656777 0.000000
0.878978 0.651975 0.000000
0.978583 0.647217 0.000000
1.000000 0.642498 0.000000
1.000000 0.641718 0.000000
1.000000 0.641718 0.000000
0.000000 0.786985 0.000000
0.000000 0.786985 0.000000
0.000000 0.781975 0.000000
0.004559 0.776816 0.000000
0.099808 0.771734 0.000000
0.196004 0.766722 0.000000
0.293072 0.761775 0.000000
0.390936 0.756888 0.000000
0.489523 0.752054 0.000000
0.588756 0.747269 0.000000
0.688561 0.742526 0.000000
0.788863 0.737820 0.000000
0.889587 0.733146 0.000000
0.990658 0.728498 0.000000
1.000000 0.723870 0.000000
1.000000 0.725129 0.000000
1.000000 0.725129 0.000000
0.000000 0.866714 0.000000
0.000000 0.866714 0.000000
0.000000 0.861945 0.000000
0.002193 0.857021 0.000000
0.100329 0.852153 0.000000
0.199160 0.847338 0.000000
0.298610 0.842569 0.000000
0.398604 0.837840 0.000000
0.499069 0.833147 0.000000
0.599928 0.828482 0.000000
0.701107 0.823842 0.000000
0.802531 0.819220 0.000000
0.904124 0.814611 0.000000
1.000000 0.810008 0.000000
1.000000 0.807438 0.000000
1.000000 0.808733 0.000000
1.000000 0.808733 0.000000
0.000000 0.947216 0.000000
0.000000 0.947216 0.000000
0.000000 0.942628 0.000000
0.008536 0.937874 0.000000
0.108710 0.933159 0.000000
0.209327 0.928477 0.000000
0.310311 0.923822 0.000000
0.411588 0.919189 0.000000
0.513082 0.914572 0.000000
0.614719 0.909966 0.000000
0.716424 0.905365 0.000000
0.818121 0.900763 0.000000
0.919736 0.896155 0.000000
1.000000 0.891535 0.000000
1.000000 0.890943 0.000000
1.000000 0.892143 0.000000
1.000000 0.892143 0.000000
0.000000 1.000000 0.000000
0.000000 1.000000 0.000000
0.000000 1.000000 0.000000
0.020733 1.000000 0.000000
0.122098 1.000000 0.000000
0.223653 1.000000 0.000000
0.325323 1.000000 0.000000
0.427033 1.000000 0.000000
0.528709 0.996118 0.000000
0.630276 0.991506 0.000000
0.731658 0.986881 0.000000
0.832781 0.982236 0.000000
0.933569 0.977567 0.000000
1.000000 0.972867 0.000000
1.000000 0.973976 0.000000
1.000000 0.974971 0.000000
1.000000 0.974971 0.000000
0.000000 1.000000 0.000000
0.000000 1.000000 0.000000
0.000000 1.000000 0.000000
0.038892 1.000000 0.000000
0.140945 1.000000 0.000000
0.242946 1.000000 0.000000
0.344817 1.000000 0.000000
0.446480 1.000000 0.000000
0.547858 1.000000 0.000000
0.648873 1.000000 0.000000
0.749448 1.000000 0.000000
0.849505 1.000000 0.000000
0.948967 1.000000 0.000000
1.000000 1.000000 0.000000
1.000000 1.000000 0.000000
1.000000 1.000000 0.000000
1.000000 1.000000 0.000000
0.000000 1.000000 0.000000
0.000000 1.000000 0.000000
0.000000 1.000000 0.000000
0.038892 1.000000 0.000000
0.140945 1.000000 0.000000
0.242946 1.000000 0.000000
0.344817 1.000000 0.000000
0.446480 1.000000 0.000000
0.547858 1.000000 0.000000
0.648873 1.000000 0.000000
0.749448 1.000000 0.000000
0.849505 1.000000 0.000000
0.948967 1.000000 0.000000
1.000000 1.000000 0.000000
1.000000 1.000000 0.000000
1.000000 1.000000 0.000000
1.000000 1.000000 0.000000
0.000000 0.090685 0.217237
0.000000 0.090685 0.217237
0.077198 0.085182 0.211593
0.168964 0.078962 0.205055
0.260772 0.072297 0.197909
0.352620 0.065217 0.190198
0.444504 0.057755 0.181964
0.536422 0.049942 0.173251
0.628370 0.041810 0.164103
0.720346 0.033391 0.154562
0.812345 0.024715 0.144672
0.904366 0.015816 0.134476
0.996406 0.006724 0.124017
1.000000 0.000000 0.113339
1.000000 0.000000 0.102484
1.000000 0.000000 0.092531
1.000000 0.000000 0.092531
0.000000 0.090685 0.217237
0.000000 0.090685 0.217237
0.077198 0.085182 0.211593
0.168964 0.078962 0.205055
0.260772 0.072297 0.197909
0.352620 0.065217 0.190198
0.444504 0.057755 0.181964
0.536422 0.049942 0.173251
0.628370 0.041810 0.164103
0.720346 0.033391 0.154562
0.812345 0.024715 0.144672
0.904366 0.015816 0.134476
0.996406 0.006724 0.124017
1.000000 0.000000 0.113339
1.000000 0.000000 0.102484
1.000000 0.000000 0.092531
1.000000 0.000000 0.092531
0.000000 0.163298 0.195947
0.000000 0.163298 0.195947
0.060402 0.156436 0.188447
0.152294 0.148895 0.180106
0.244219 0.141010 0.171294
0.336173 0.132812 0.162057
0.428154 0.124334 0.152436
0.520159 0.115608 0.142476
0.612184 0.106663 0.132219
0.704227 0.097533 0.121709
0.796285 0.088250 0.110988
0.888354 0.078844 0.100101
0.980432 0.069347 0.089090
1.000000 0.059791 0.077998
1.000000 0.050209 0.066869
1.000000 0.041465 0.056648
1.000000 0.041465 0.056648
0.000000 0.234736 0.167579
0.000000 0.234736 0.167579
0.043238 0.226788 0.158596
0.135228 0.218216 0.148847
0.227240 0.209406 0.138774
0.319272 0.200391 0.128420
0.411321 0.191201 0.117828
0.503383 0.181869 0.107041
0.595456 0.172426 0.096104
0.687537 0.162905 0.085059
0.779621 0.153335 0.073948
0.871708 0.143751 0.062817
0.963793 0.134181 0.051707
1.000000 0.124660 0.040662
1.000000 0.115218 0.029725
1.000000 0.106569 0.019685
1.000000 0.106569 0.019685
0.000000 0.302786 0.134585
0.000000 0.302786 0.134585
0.026363 0.294095 0.124589
0.118417 0.284850 0.113921
0.210483 0.275474 0.103075
0.302559 0.265999 0.092093
0.394642 0.256456 0.081019
0.486727 0.246877 0.069896
0.578814 0.237295 0.058767
0.670897 0.227739 0.047676
0.762975 0.218243 0.036666
0.855044 0.208837 0.025779
0.947102 0.199554 0.015059
1.000000 0.190425 0.004550
1.000000 0.181482 0.000000
1.000000 0.173288 0.000000
1.000000 0.173288 0.000000
0.000000 0.368654 0.098613
0.000000 0.368654 0.098613
0.009663 0.359562 0.088070
0.101747 0.350002 0.076973
0.193833 0.340419 0.065843
0.285919 0.330842 0.054723
0.378001 0.321305 0.043656
0.470076 0.311838 0.032685
0.562141 0.302473 0.021855
0.654194 0.293243 0.011207
0.746231 0.284178 0.000785
0.838249 0.275310 0.000000
0.930245 0.266671 0.000000
1.000000 0.258293 0.000000
1.000000 0.250208 0.000000
1.000000 0.242839 0.000000
1.000000 0.242839 0.000000
0.000000 0.433544 0.061307
0.000000 0.433544 0.061307
0.000000 0.424395 0.050685
0.085104 0.414880 0.039649
0.177176 0.405446 0.028724
0.269237 0.396127 0.017955
0.361284 0.386953 0.007384
0.453314 0.377956 0.000000
0.545325 0.369168 0.000000
0.637312 0.360621 0.000000
0.729274 0.352345 0.000000
0.821207 0.344374 0.000000
0.913108 0.336738 0.000000
1.000000 0.329469 0.000000
1.000000 0.322599 0.000000
1.000000 0.316439 0.000000
1.000000 0.316439 0.000000
0.000000 0.498664 0.024314
0.000000 0.498664 0.024314
0.000000 0.489800 0.014081
0.068372 0.480686 0.003594
0.160395 0.471762 0.000000
0.252398 0.463058 0.000000
0.344376 0.454606 0.000000
0.436328 0.446438 0.000000
0.528249 0.438585 0.000000
0.620138 0.431079 0.000000
0.711990 0.423951 0.000000
0.803803 0.417235 0.000000
0.895574 0.410960 0.000000
0.987301 0.405159 0.000000
1.000000 0.399785 0.000000
1.000000 0.394848 0.000000
1.000000 0.394848 0.000000
0.000000 0.565218 0.000000
0.000000 0.565218 0.000000
0.000000 0.556981 0.000000
0.051436 0.548629 0.000000
0.143377 0.540572 0.000000
0.235287 0.532841 0.000000
0.327163 0.525470 0.000000
0.419001 0.518488 0.000000
0.510800 0.511929 0.000000
0.602555 0.505822 0.000000
0.694264 0.500202 0.000000
0.786503 0.494895 0.000000
0.879896 0.489674 0.000000
0.974368 0.484533 0.000000
1.000000 0.479468 0.000000
1.000000 0.475505 0.000000
1.000000 0.475505 0.000000
0.000000 0.634411 0.000000
0.000000 0.634411 0.000000
0.000000 0.627146 0.000000
0.034183 0.619912 0.000000
0.126007 0.613081 0.000000
0.217790 0.606683 0.000000
0.309529 0.600750 0.000000
0.401288 0.595290 0.000000
0.493955 0.590015 0.000000
0.587750 0.584825 0.000000
0.682596 0.579712 0.000000
0.778420 0.574673 0.000000
0.875145 0.569700 0.000000
0.972697 0.564790 0.000000
1.000000 0.559935 0.000000
1.000000 0.557479 0.000000
1.000000 0.557479 0.000000
0.000000 0.707450 0.000000
0.000000 0.707450 0.000000
0.000000 0.701498 0.000000
0.016497 0.695742 0.000000
0.108470 0.690391 0.000000
0.201557 0.685147 0.000000
0.295743 0.679986 0.000000
0.390954 0.674901 0.000000
0.487114 0.669886 0.000000
0.584149 0.664937 0.000000
0.681983 0.660047 0.000000
0.780543 0.655212 0.000000
0.879752 0.650424 0.000000
0.979536 0.645680 0.000000
1.000000 0.640973 0.000000
1.000000 0.640383 0.000000
1.000000 0.640383 0.000000
0.000000 0.785275 0.000000
0.000000 0.785275 0.000000
0.000000 0.780290 0.000000
0.003872 0.775157 0.000000
0.099437 0.770098 0.000000
0.195924 0.765108 0.000000
0.293259 0.760181 0.000000
0.391366 0.755312 0.000000
0.490171 0.750495 0.000000
0.589598 0.745724 0.000000
0.689573 0.740994 0.000000
0.790020 0.736299 0.000000
0.890865 0.731634 0.000000
0.992033 0.726992 0.000000
1.000000 0.722544 0.000000
1.000000 0.723830 0.000000
1.000000 0.723830 0.000000
0.000000 0.865088 0.000000
0.000000 0.865088 0.000000
0.000000 0.860339 0.000000
0.002471 0.855434 0.000000
0.100841 0.850584 0.000000
0.199881 0.845784 0.000000
0.299516 0.841029 0.000000
0.399672 0.836312 0.000000
0.500273 0.831628 0.000000
0.601244 0.826973 0.000000
0.702511 0.822339 0.000000
0.803998 0.817722 0.000000
0.905630 0.813115 0.000000
1.000000 0.808514 0.000000
1.000000 0.806142 0.000000
1.000000 0.807433 0.000000
1.000000 0.807433 0.000000
0.000000 0.945653 0.000000
0.000000 0.945653 0.000000
0.000000 0.941079 0.000000
0.009504 0.936338 0.000000
0.109830 0.931635 0.000000
0.210574 0.926962 0.000000
0.311662 0.922315 0.000000
0.413017 0.917687 0.000000
0.514566 0.913075 0.000000
0.616233 0.908471 0.000000
0.717944 0.903870 0.000000
0.819623 0.899267 0.000000
0.921195 0.894656 0.000000
1.000000 0.890031 0.000000
1.000000 0.889618 0.000000
1.000000 0.890803 0.000000
1.000000 0.890803 0.000000
0.000000 1.000000 0.000000
0.000000 1.000000 0.000000
0.000000 1.000000 0.000000
0.022115 1.000000 0.000000
0.123550 1.000000 0.000000
0.225151 1.000000 0.000000
0.326842 1.000000 0.000000
0.428550 0.999226 0.000000
0.530198 0.994621 0.000000
0.631713 0.990005 0.000000
0.733019 0.985375 0.000000
0.834041 0.980723 0.000000
0.934705 0.976044 0.000000
1.000000 0.971493 0.000000
1.000000 0.972585 0.000000
1.000000 0.973554 0.000000
1.000000 0.973554 0.000000
0.000000 1.000000 0.000000
0.000000 1.000000 0.000000
0.000000 1.000000 0.000000
0.040524 1.000000 0.000000
0.142569 1.000000 0.000000
0.244536 1.000000 0.000000
0.346348 1.000000 0.000000
0.447927 1.000000 0.000000
0.549195 1.000000 0.000000
0.650076 1.000000 0.000000
0.750491 1.000000 0.000000
0.850363 1.000000 0.000000
0.949615 1.000000 0.000000
1.000000 1.000000 0.000000
1.000000 1.000000 0.000000
1.000000 1.000000 0.000000
1.000000 1.000000 0.000000
0.000000 1.000000 0.000000
0.000000 1.000000 0.000000
0.000000 1.000000 0.000000
0.040524 1.000000 0.000000
0.142569 1.000000 0.000000
0.244536 1.000000 0.000000
0.346348 1.000000 0.000000
0.447927 1.000000 0.000000
0.549195 1.000000 0.000000
0.650076 1.000000 0.000000
0.750491 1.000000 0.000000
0.850363 1.000000 0.000000
0.949615 1.000000 0.000000
1.000000 1.000000 0.000000
1.000000 1.000000 0.000000
1.000000 1.000000 0.000000
1.000000 1.000000 0.000000
0.000000 0.088783 0.312335
0.000000 0.088783 0.312335
0.075405 0.083122 0.306475
0.167186 0.076747 0.299726
0.259008 0.069937 0.292383
0.350868 0.062724 0.284489
0.442764 0.055140 0.276088
0.534693 0.047215 0.267222
0.626650 0.038982 0.257936
0.718634 0.030472 0.248272
0.810642 0.021717 0.238273
0.902669 0.012748 0.227983
0.994714 0.003598 0.217444
1.000000 0.000000 0.206701
1.000000 0.000000 0.195796
1.000000 0.000000 0.185795
1.000000 0.000000 0.185795
0.000000 0.088783 0.312335
